emoticon-frown.svg

<svg fill="currentColor" viewBox="0 0 24 24"><path d="M12 2C6.47 2 2 6.5 2 12s4.47 10 10 10c5.5 0 10-4.5 10-10S17.5 2 12 2m3.5 6c.83 0 1.5.67 1.5 1.5s-.67 1.5-1.5 1.5-1.5-.67-1.5-1.5.67-1.5 1.5-1.5m-7 0c.83 0 1.5.67 1.5 1.5S9.33 11 8.5 11 7 10.33 7 9.5 7.67 8 8.5 8m-1.61 9c.8-2.04 2.78-3.5 5.11-3.5s4.31 1.46 5.11 3.5z"/></svg>

<svg  viewBox="0 0 24 24" fill="currentColor"><path  d="M12 2C6.47 2 2 6.5 2 12S6.47 22 12 22C17.5 22 22 17.5 22 12S17.5 2 12 2M15.5 8C16.33 8 17 8.67 17 9.5S16.33 11 15.5 11 14 10.33 14 9.5 14.67 8 15.5 8M8.5 8C9.33 8 10 8.67 10 9.5S9.33 11 8.5 11 7 10.33 7 9.5 7.67 8 8.5 8M6.89 17C7.69 14.96 9.67 13.5 12 13.5S16.31 14.96 17.11 17H6.89Z"/></svg>
